assets/img/button.svg

<svg height="84" viewBox="0 0 84 84" width="84" xmlns="http://www.w3.org/2000/svg"><path d="m2 2h80v80h-80z" fill="#eaeaea" stroke="#185a69" stroke-width="4"/><rect fill="#fff" height="14" rx="1" stroke="#185a69" stroke-width="4" width="38" x="23" y="35"/><path d="m33 41h19v2h-19z" fill="#6a6a6a"/><path d="m11.214 12.214h-3.937l2.072 5.046a.689.689 0 0 1 -.35.891l-1.824.8a.656.656 0 0 1 -.866-.36l-1.969-4.798-3.216 3.307a.657.657 0 0 1 -1.124-.476v-15.945a.657.657 0 0 1 1.124-.479l10.554 10.858a.68.68 0 0 1 -.464 1.156z" fill="#185a69" transform="translate(55 43)"/></svg>

<svg xmlns="http://www.w3.org/2000/svg" xmlns:xlink="http://www.w3.org/1999/xlink" width="84" height="84" viewBox="0 0 84 84">
  <defs>
    <filter id="Rectangle_485" x="12.5" y="25.5" width="62" height="33" filterUnits="userSpaceOnUse">
      <feOffset input="SourceAlpha"/>
      <feGaussianBlur stdDeviation="2.5" result="blur"/>
      <feFlood flood-color="#aac7e5"/>
      <feComposite operator="in" in2="blur"/>
      <feComposite in="SourceGraphic"/>
    </filter>
    <clipPath id="clip-button">
      <rect width="84" height="84"/>
    </clipPath>
  </defs>
  <g id="button" clip-path="url(#clip-button)">
    <rect width="84" height="84" fill="#fff"/>
    <g id="Group_279" data-name="Group 279" transform="translate(-554 -154)">
      <path id="Union_12" data-name="Union 12" d="M3,14.333H81a3,3,0,0,1,3,3v78a3,3,0,0,1-3,3H3a3,3,0,0,1-3-3v-78A3,3,0,0,1,3,14.333Z" transform="translate(554 139.667)" fill="#d0e0f0"/>
      <g transform="matrix(1, 0, 0, 1, 554, 154)" filter="url(#Rectangle_485)">
        <rect id="Rectangle_485-2" data-name="Rectangle 485" width="47" height="18" rx="3" transform="translate(20 33)" fill="#fff"/>
      </g>
      <rect id="Rectangle_484" data-name="Rectangle 484" width="20" height="2" transform="translate(588 195)" fill="#6a6a6a"/>
      <path id="Icon_awesome-mouse-pointer" data-name="Icon awesome-mouse-pointer" d="M11.214,12.214H7.277L9.349,17.26a.689.689,0,0,1-.35.891l-1.824.8a.656.656,0,0,1-.866-.36L4.34,13.793,1.124,17.1A.657.657,0,0,1,0,16.624V.679A.657.657,0,0,1,1.124.2L11.678,11.058A.68.68,0,0,1,11.214,12.214Z" transform="translate(613 200)" fill="#185a6a"/>
    </g>
  </g>
</svg>
